X:046
T:Dinny O'Brien's (reel) 
B:CRE3.145 (Ril Donncha Ui Bhriain)
F:file ID: cre.3/046dinn_ob
C:Paddy O'Brien (Tipp) % Dinny was Paddy's dad
R:reel
L:1/8
Q:180
M:C
K:G
"D modal"
z|fdd2 dcAB|c2dB cAGE|D2ED ADED|(3EFG AB cdeg|
fdd2 dcAB|c2dB cAGE|D2ED (3EFG AB|cAGB ADD:|
g|fdd2 defg|add2 adef|gcc2 cdef|g3a gfeg|
fdd2 dcAB|c2dB cAGE|D2ED (3EFG AB|cAGB ADD:| 

%%%

